images/status-logo.svg

<svg width="91" height="34" viewBox="0 0 91 34" fill="none" xmlns="http://www.w3.org/2000/svg">
<path fill-rule="evenodd" clip-rule="evenodd" d="M17.3333 0C7.76038 0 0 7.61126 0 17C0 26.3889 7.76038 34 17.3333 34C26.9063 34 34.6667 26.3889 34.6667 17C34.6667 7.61126 26.9063 0 17.3333 0Z" fill="#4360DF"/>
<path fill-rule="evenodd" clip-rule="evenodd" d="M17.9154 16.2546C18.7858 16.3435 19.6562 16.4323 20.7263 16.3739C23.6255 16.2154 25.3818 14.7559 25.2571 12.5744C25.1301 10.3548 22.7936 8.98732 20.4559 9.11518C16.6461 9.32337 13.8445 12.6039 13.529 16.3534C14.0464 16.2345 14.5909 16.1635 15.1045 16.1355C16.1747 16.077 17.045 16.1658 17.9154 16.2546ZM10.4469 21.107C10.5671 23.1416 12.7807 24.3951 14.9955 24.2779C18.6047 24.087 21.259 21.0799 21.5578 17.6429C21.0676 17.7519 20.5518 17.817 20.0652 17.8427C19.0514 17.8963 18.2267 17.8149 17.4021 17.7334C16.5775 17.652 15.7529 17.5706 14.7391 17.6242C11.9926 17.7695 10.3287 19.1072 10.4469 21.107Z" fill="white"/>
<path d="M41.4121 19.8226H43.9176C43.9176 20.2389 44.0373 20.5377 44.2767 20.7191C44.5161 20.9005 44.8235 20.9913 45.199 20.9913C45.509 20.9913 45.762 20.9352 45.9579 20.8232C46.1592 20.7058 46.2599 20.5163 46.2599 20.2549C46.2599 20.1001 46.2164 19.9747 46.1293 19.8787C46.0477 19.7773 45.9198 19.6892 45.7458 19.6145C45.5716 19.5345 45.3486 19.4545 45.0765 19.3744C44.8045 19.2944 44.478 19.193 44.0972 19.0703C43.7544 18.9635 43.4306 18.8541 43.126 18.742C42.8267 18.6247 42.5629 18.4806 42.3343 18.3098C42.1058 18.1391 41.9263 17.931 41.7957 17.6855C41.6706 17.44 41.608 17.1358 41.608 16.773C41.608 16.3568 41.6923 15.9966 41.861 15.6924C42.0296 15.3882 42.2663 15.1374 42.571 14.94C42.8757 14.7425 43.2402 14.5958 43.6647 14.4997C44.089 14.3984 44.5569 14.3477 45.0683 14.3477C45.6941 14.3477 46.2327 14.4171 46.6843 14.5558C47.1359 14.6945 47.5058 14.8839 47.7943 15.1241C48.0826 15.3643 48.2948 15.6471 48.4308 15.9726C48.5723 16.298 48.643 16.6476 48.643 17.0211H46.1212C46.1212 16.6956 46.0341 16.4421 45.86 16.2607C45.6913 16.0793 45.4329 15.9886 45.0847 15.9886C44.8181 15.9886 44.5896 16.0473 44.3992 16.1647C44.2087 16.2767 44.1135 16.4475 44.1135 16.677C44.1135 16.8317 44.157 16.9571 44.2441 17.0531C44.3366 17.1439 44.4698 17.2265 44.644 17.3013C44.8181 17.376 45.033 17.4534 45.2887 17.5334C45.5444 17.6081 45.8382 17.6988 46.1701 17.8055C46.5292 17.9016 46.8638 18.0083 47.174 18.1257C47.4841 18.2431 47.7561 18.3872 47.9901 18.5579C48.2295 18.7234 48.4172 18.9341 48.5532 19.1903C48.6947 19.4411 48.7654 19.7612 48.7654 20.1508C48.7654 20.6097 48.6675 21.0019 48.4716 21.3274C48.2757 21.6476 48.0118 21.9091 47.68 22.1119C47.3535 22.3146 46.9727 22.4587 46.5374 22.5441C46.1021 22.6348 45.6451 22.6802 45.1663 22.6802C43.9747 22.6802 43.0498 22.4374 42.3915 21.9518C41.7385 21.4609 41.4121 20.7511 41.4121 19.8226Z" fill="white"/>
<path d="M49.402 16.429V14.564H50.667V12.2188H53.2133V14.564H55.0496V16.429H53.2133V19.2546C53.2133 19.5481 53.2405 19.7828 53.2949 19.9589C53.3493 20.1297 53.4255 20.2658 53.5234 20.3672C53.6268 20.4632 53.7492 20.5273 53.8907 20.5593C54.0376 20.5859 54.2008 20.5993 54.3804 20.5993C54.4892 20.5993 54.6279 20.5966 54.7966 20.5912C54.9652 20.5806 55.1121 20.5646 55.2373 20.5432V22.4643C55.0469 22.4963 54.8075 22.5257 54.5191 22.5523C54.2362 22.579 53.9016 22.5923 53.5153 22.5923C53.2161 22.5923 52.9005 22.571 52.5686 22.5283C52.2367 22.4857 51.9292 22.3736 51.6463 22.1922C51.3634 22.0107 51.1295 21.7332 50.9445 21.3597C50.7595 20.9808 50.667 20.4632 50.667 19.8068V16.429H49.402Z" fill="white"/>
<path d="M55.9718 18.51C55.9718 17.9177 56.067 17.368 56.2574 16.8611C56.4533 16.3542 56.7227 15.9193 57.0654 15.5564C57.4136 15.1882 57.819 14.8974 58.2815 14.6839C58.7439 14.4705 59.2445 14.3638 59.7832 14.3638C60.387 14.3638 60.9094 14.4891 61.3501 14.74C61.7962 14.9908 62.1307 15.3083 62.3542 15.6925V14.5639H64.9084V22.4641H62.3542V21.3516C62.1524 21.7144 61.8289 22.0239 61.3827 22.2801C60.9366 22.5362 60.4034 22.6643 59.7832 22.6643C59.2499 22.6643 58.7494 22.5575 58.2815 22.3441C57.819 22.1306 57.4136 21.8398 57.0654 21.4716C56.7227 21.1034 56.4533 20.6659 56.2574 20.1589C56.067 19.652 55.9718 19.1023 55.9718 18.51ZM58.51 18.51C58.51 18.7821 58.5562 19.0436 58.6487 19.2944C58.7466 19.5399 58.8772 19.7534 59.0404 19.9348C59.2091 20.1109 59.4104 20.2549 59.6444 20.367C59.8784 20.4738 60.1395 20.5271 60.4279 20.5271C60.7163 20.5271 60.9774 20.4738 61.2114 20.367C61.4508 20.2549 61.6521 20.1109 61.8153 19.9348C61.984 19.7534 62.1146 19.5399 62.2069 19.2944C62.3047 19.049 62.3542 18.7875 62.3542 18.51C62.3542 18.2379 62.3047 17.9817 62.2069 17.7416C62.1146 17.5015 61.984 17.288 61.8153 17.1013C61.6521 16.9145 61.4535 16.7678 61.2195 16.661C60.9855 16.5543 60.7217 16.5009 60.4279 16.5009C60.1395 16.5009 59.8784 16.5543 59.6444 16.661C59.4104 16.7678 59.2091 16.9145 59.0404 17.1013C58.8772 17.288 58.7466 17.5015 58.6487 17.7416C58.5562 17.9817 58.51 18.2379 58.51 18.51Z" fill="white"/>
<path d="M66.2796 16.429V14.564H67.5443V12.2188H70.091V14.564H71.9271V16.429H70.091V19.2546C70.091 19.5481 70.1183 19.7828 70.1721 19.9589C70.2266 20.1297 70.3028 20.2658 70.4012 20.3672C70.5046 20.4632 70.6265 20.5273 70.7683 20.5593C70.915 20.5859 71.0784 20.5993 71.258 20.5993C71.3669 20.5993 71.5056 20.5966 71.674 20.5912C71.843 20.5806 71.9897 20.5646 72.1147 20.5432V22.4643C71.9247 22.4963 71.6851 22.5257 71.3966 22.5523C71.1137 22.579 70.7788 22.5923 70.3925 22.5923C70.0935 22.5923 69.7778 22.571 69.446 22.5283C69.1142 22.4857 68.8065 22.3736 68.5236 22.1922C68.2407 22.0107 68.0067 21.7332 67.8222 21.3597C67.6371 20.9808 67.5443 20.4632 67.5443 19.8068V16.429H66.2796Z" fill="white"/>
<path d="M73.3801 19.2545V14.564H75.9181V18.6142C75.9181 19.1798 76.0215 19.6414 76.2283 19.9989C76.435 20.3511 76.8046 20.5272 77.3382 20.5272C77.8712 20.5272 78.2631 20.3484 78.5132 19.9909C78.7689 19.628 78.897 19.1398 78.897 18.5261V14.564H81.4512V22.4642H78.897V21.3356C78.6735 21.7519 78.3337 22.0774 77.8768 22.3121C77.4193 22.5469 76.8727 22.6643 76.2363 22.6643C75.681 22.6643 75.2242 22.579 74.8651 22.4082C74.5117 22.2375 74.2232 22.0213 74.0003 21.7598C73.744 21.4557 73.5757 21.1035 73.494 20.7033C73.4178 20.303 73.3801 19.8201 73.3801 19.2545Z" fill="white"/>
<path d="M83.0997 19.8226H85.6056C85.6056 20.2389 85.7251 20.5377 85.9647 20.7191C86.2036 20.9005 86.5113 20.9913 86.8864 20.9913C87.1966 20.9913 87.4498 20.9352 87.646 20.8232C87.8472 20.7058 87.9475 20.5163 87.9475 20.2549C87.9475 20.1001 87.9041 19.9747 87.8169 19.8787C87.7358 19.7773 87.6076 19.6892 87.4337 19.6145C87.2597 19.5345 87.0362 19.4545 86.7645 19.3744C86.4921 19.2944 86.1659 19.193 85.7851 19.0703C85.4422 18.9635 85.1184 18.8541 84.8139 18.742C84.5142 18.6247 84.2505 18.4806 84.0221 18.3098C83.7937 18.1391 83.6141 17.931 83.4835 17.6855C83.3585 17.44 83.2959 17.1358 83.2959 16.773C83.2959 16.3568 83.3801 15.9966 83.5485 15.6924C83.7175 15.3882 83.954 15.1374 84.2586 14.94C84.5638 14.7425 84.9278 14.5958 85.3524 14.4997C85.7765 14.3984 86.2445 14.3477 86.7564 14.3477C87.3817 14.3477 87.9202 14.4171 88.3721 14.5558C88.8234 14.6945 89.1936 14.8839 89.4821 15.1241C89.7706 15.3643 89.9823 15.6471 90.1185 15.9726C90.2602 16.298 90.3308 16.6476 90.3308 17.0211H87.8088C87.8088 16.6956 87.7221 16.4421 87.5476 16.2607C87.3792 16.0793 87.1204 15.9886 86.7725 15.9886C86.5057 15.9886 86.2773 16.0473 86.0866 16.1647C85.8966 16.2767 85.8012 16.4475 85.8012 16.677C85.8012 16.8317 85.8446 16.9571 85.9319 17.0531C86.0241 17.1439 86.1578 17.2265 86.3318 17.3013C86.5057 17.376 86.7205 17.4534 86.9762 17.5334C87.2325 17.6081 87.5259 17.6988 87.8577 17.8055C88.2168 17.9016 88.5517 18.0083 88.8618 18.1257C89.1719 18.2431 89.4437 18.3872 89.6777 18.5579C89.9173 18.7234 90.1049 18.9341 90.241 19.1903C90.3822 19.4411 90.4534 19.7612 90.4534 20.1508C90.4534 20.6097 90.3549 21.0019 90.1593 21.3274C89.9637 21.6476 89.6994 21.9091 89.3676 22.1119C89.0413 22.3146 88.6606 22.4587 88.2254 22.5441C87.7896 22.6348 87.3328 22.6802 86.8542 22.6802C85.6626 22.6802 84.7377 22.4374 84.079 21.9518C83.4266 21.4609 83.0997 20.7511 83.0997 19.8226Z" fill="white"/>
</svg>

<svg width="91" height="34" fill="none" xmlns="http://www.w3.org/2000/svg"><path fill-rule="evenodd" clip-rule="evenodd" d="M17.333 0C7.76 0 0 7.611 0 17s7.76 17 17.333 17c9.573 0 17.334-7.611 17.334-17S26.907 0 17.333 0z" fill="#4360DF"/><path fill-rule="evenodd" clip-rule="evenodd" d="M17.915 16.255c.87.088 1.741.177 2.811.119 2.9-.159 4.656-1.618 4.531-3.8-.127-2.22-2.463-3.587-4.801-3.459-3.81.208-6.611 3.489-6.927 7.238a9.435 9.435 0 0 1 1.575-.218c1.07-.058 1.941.03 2.811.12zm-7.468 4.852c.12 2.035 2.334 3.288 4.549 3.17 3.609-.19 6.263-3.197 6.562-6.634a9.224 9.224 0 0 1-1.493.2c-1.014.053-1.838-.028-2.663-.11-.825-.081-1.65-.162-2.663-.109-2.746.146-4.41 1.483-4.292 3.483z" fill="#fff"/><path d="M41.412 19.823h2.506c0 .416.12.715.359.896.24.181.547.272.922.272.31 0 .563-.056.759-.168.201-.117.302-.307.302-.568a.538.538 0 0 0-.13-.376.976.976 0 0 0-.384-.265 5.07 5.07 0 0 0-.67-.24 39.78 39.78 0 0 1-.979-.304 20.295 20.295 0 0 1-.971-.328 3.367 3.367 0 0 1-.792-.432 1.866 1.866 0 0 1-.538-.624c-.125-.246-.188-.55-.188-.913 0-.416.084-.776.253-1.08.169-.305.405-.556.71-.753.305-.197.67-.344 1.094-.44a6.046 6.046 0 0 1 1.403-.152c.626 0 1.165.07 1.616.208.452.139.822.328 1.11.568.289.24.5.523.637.849a2.6 2.6 0 0 1 .212 1.048h-2.522c0-.325-.087-.579-.261-.76-.169-.182-.427-.272-.775-.272a1.28 1.28 0 0 0-.686.176.555.555 0 0 0-.285.512c0 .155.043.28.13.376.093.09.226.174.4.248.174.075.389.152.645.232.255.075.55.166.881.272.36.097.694.203 1.004.32.31.118.582.262.816.433.24.165.427.376.563.632.142.251.212.571.212.96 0 .46-.098.852-.293 1.177-.196.32-.46.582-.792.785a3.38 3.38 0 0 1-1.143.432 6.75 6.75 0 0 1-1.37.136c-1.192 0-2.117-.243-2.776-.728-.652-.491-.979-1.2-.979-2.13zm7.99-3.394v-1.865h1.265v-2.345h2.546v2.345h1.837v1.865h-1.837v2.826c0 .293.027.528.082.704.054.17.13.307.228.408.104.096.226.16.368.192.147.027.31.04.49.04.108 0 .247-.002.416-.008a3.92 3.92 0 0 0 .44-.048v1.921a10.866 10.866 0 0 1-1.722.128 7.37 7.37 0 0 1-.946-.064 2.21 2.21 0 0 1-.923-.336c-.283-.181-.517-.459-.702-.832-.184-.38-.277-.897-.277-1.553v-3.378h-1.265zm6.57 2.081c0-.592.095-1.142.285-1.649.196-.507.466-.942.808-1.305a3.919 3.919 0 0 1 1.217-.872 3.54 3.54 0 0 1 1.501-.32c.604 0 1.126.125 1.567.376.446.25.78.568 1.004.953v-1.13h2.554v7.901h-2.554v-1.112c-.202.362-.525.672-.971.928-.446.256-.98.384-1.6.384a3.576 3.576 0 0 1-1.502-.32 3.919 3.919 0 0 1-1.216-.872 4.04 4.04 0 0 1-.808-1.313 4.653 4.653 0 0 1-.285-1.649zm2.538 0c0 .272.046.534.139.784.098.246.228.46.391.64.17.177.37.32.604.433.234.107.495.16.784.16a1.865 1.865 0 0 0 1.387-.592c.169-.182.3-.395.392-.64a2.1 2.1 0 0 0 .147-.785c0-.272-.05-.528-.147-.768a2.036 2.036 0 0 0-.392-.64 1.739 1.739 0 0 0-.596-.441 1.887 1.887 0 0 0-.791-.16c-.288 0-.55.053-.784.16a1.825 1.825 0 0 0-.604.44c-.163.187-.293.4-.391.64-.093.24-.139.497-.139.769zm7.77-2.081v-1.865h1.264v-2.345h2.547v2.345h1.836v1.865h-1.836v2.826c0 .293.027.528.081.704.055.17.13.307.23.408.103.096.224.16.366.192.147.027.31.04.49.04.109 0 .248-.002.416-.008.169-.01.316-.026.44-.048v1.921a10.873 10.873 0 0 1-1.722.128 7.37 7.37 0 0 1-.946-.064 2.21 2.21 0 0 1-.922-.336c-.283-.181-.517-.459-.702-.832-.185-.38-.278-.897-.278-1.553v-3.378H66.28zm7.1 2.826v-4.691h2.538v4.05c0 .566.103 1.027.31 1.385.207.352.577.528 1.11.528.533 0 .925-.179 1.175-.536.256-.363.384-.851.384-1.465v-3.962h2.554v7.9h-2.554v-1.128a2.326 2.326 0 0 1-1.02.976c-.458.235-1.004.352-1.64.352-.556 0-1.013-.085-1.372-.256A2.605 2.605 0 0 1 74 21.76a2.336 2.336 0 0 1-.506-1.057 7.88 7.88 0 0 1-.114-1.448zm9.72.568h2.506c0 .416.12.715.359.896.239.181.546.272.921.272.31 0 .564-.056.76-.168.201-.117.302-.307.302-.568a.538.538 0 0 0-.131-.376.972.972 0 0 0-.383-.265 5.08 5.08 0 0 0-.67-.24 39.78 39.78 0 0 1-.979-.304 20.22 20.22 0 0 1-.971-.328 3.356 3.356 0 0 1-.792-.432 1.867 1.867 0 0 1-.538-.624c-.125-.246-.188-.55-.188-.913 0-.416.084-.776.252-1.08.17-.305.406-.556.71-.753.306-.197.67-.344 1.094-.44a6.045 6.045 0 0 1 1.404-.152c.626 0 1.164.07 1.616.208.451.139.822.328 1.11.568.289.24.5.523.636.849.142.325.213.675.213 1.048h-2.522c0-.325-.087-.579-.261-.76-.169-.182-.428-.272-.776-.272-.266 0-.495.058-.685.176a.555.555 0 0 0-.286.512c0 .155.044.28.13.376a1.3 1.3 0 0 0 .4.248c.175.075.39.152.645.232.257.075.55.166.882.272.359.097.694.203 1.004.32.31.118.582.262.816.433.24.165.427.376.563.632.141.251.212.571.212.96 0 .46-.098.852-.294 1.177-.195.32-.46.582-.791.785a3.377 3.377 0 0 1-1.143.432 6.75 6.75 0 0 1-1.37.136c-1.192 0-2.117-.243-2.776-.728-.652-.491-.98-1.2-.98-2.13z" fill="#fff"/></svg>
